X: 87
T: An Rûz Bâmdâdî...
C: Hüseyin Fahreddin Dede
O: Turkey
F: http://compmusic.upf.edu/node/140
N: acemasiran--selam--agirduyek--her_ruz--huseyin_fahreddin_dede
N: makam= acemasiran
N: form= selam
N: usul= agirduyek = 8/4
M: 8/4
L: 1/16
K: C _B   
Q: 1/4=87
%%MIDI tuningsystem comma53
c8 d4 e4 f16  | c4 f8 f2e2 e6d2 dcde d2c2  | \
w:  An  *  *  rûz_  |  i  ba mi *  dâ  | 
c8 c4 c4 c8 d8  | 
w:  *  dî  se lâ mün   | 
e4 d2e2 d4 e4 f12 z4  | z4 g2f2 e4 f4 g2a2 g4 a8  | \
w:  a ley *  *  kü mâ    |  Yâ *  *  ri  hey  *  *  sul  | 
a4 g8 b4 a6g2 f2e2 f4  | 
w:  *  tân_ ı  men   | 
z4 g2f2 e4 f4 g4 a2g2 f2e2 f4  | f4 f4 e2f2 g2f2 f12 z4  | \
w:  hey  *  *  *  hey  *  *  hün  |  *  kâr_ *  *  ı  *  men    | 
e4 f8 f2e2 e6d2 d6c2  | 
w:  An  *  *  *  câ   | 
c4 c4 B4 f2_e2 d6c2 cBcd c2B2  | A8 A4 d4 c6B2 A6G2  | \
w:  ki  şeh  *  ne *  şî  |  *  ned_ ü  an  *  vakt_  | 
G4 A4 A2G2 G2F2 F6G2 A2G2 A4  | 
w:  i  Mür *  *  te *  zâ    | 
A4 A2G2 F4 G4 A2B2 A2B2 c8  | c4 B8 d4 c6B2 A8  | \
w:  *  Yâ *  *  ri  hey  *  *  *  sul  |  *  tân_ ı  men   | 
z4 G2A2 G4 A4 c2B2 A2G2 F8  | 
w:  hey  *  *  *  hey  *  *  *  hün  | 
F4 G4 A4 G2F2 F12 z4  | c8 _1/4B2c2 _3/4dedc c12 z4  | \
w:  *  kâr_ *  ı  *  men    |  Tâ  *  *  *  *  *  *  zan   | 
c4 c2_3/4d2 c4 d4 e4 f4 g4 _1/4a2g2  | 
w:  na sî *  *  bi  bah  | 
g2f2 f2e2 e4 f4 e2_3/4d2 d2c2 c4 z4  | \
w:  *  *  *  *  se dü  dest_ *  *  *  i   | 
d4 f2e2 d4 e4 f12 z4  | z4 g2f2 e4 f4 g2a2 g4 a8  | 
w:  Me sîh_ *  *  i  ışk    |  Yâ *  *  ri  hey  *  *  sul  | 
a4 g8 b4 a6g2 f2e2 f4  | z4 g2f2 e4 f4 g4 a2g2 f2e2 f4  | \
w:  *  tân_ ı  men   |  hey  *  *  *  hey  *  *  hün  | 
f4 f4 e2f2 g2f2 f12 z4  | 
w:  *  kâr_ *  *  ı  *  men    | 
e4 f8 f2e2 e6d2 d6c2  | c4 c4 B4 f2_e2 d6c2 cBcd c2B2  | 
w:  Mer  *  *  *  mur  |  de râ  *  sa *  a  | 
A8 A4 d4 c6B2 A6G2  | G4 A4 A2G2 G2F2 F6G2 A2G2 A4  | \
w:  *  det_ ü  bî *  mâ  |  rî râ  *  *  şi *  fâ    | 
A4 A2G2 F4 G4 A2B2 A2B2 c8  | 
w:  *  Ya *  *  rı  hey  *  *  *  sul  | 
c4 B8 d4 c6B2 A8  | z4 G2A2 G4 A4 c2B2 A2G2 F8  | \
w:  *  tân_ ı  men   |  hey  *  *  *  hey  *  *  *  hün  | 
F4 G4 A4 G2F2 F8 F4 z4  | 
w:  *  kâr_ *  ı  *  men    | 
f4 f8 a4 a2g2 f2e2 f4 f2e2  | d4 d8 e4 f2e2 d2^c2 d8  | \
w:  Ha ber  *  kün  *  *  *  ey   |  si tâ *  re  *  *  *  yâr_  | 
c4 f8 e4 d6c2 d4 e4  | 
w:  ı  mâ  | 
f8 e2f2 g2f2 f12 z4  | e4 f8 f2e2 e6d2 d6c2  | \
w:  râ    |  Ki  der *  *  yâ  *  bud   | 
c4 c8 c2B2 B6A2 A8  | 
w:  dil_ i  *  *  hun *  hâr_  | 
G4 A2B2 A4 G4 F6G2 A6G2  | G4 F4 E2F2 GAGF F8 a8  | \
w:  ı  mâ  |  râ   *  *  *  *  *  *  *  *  SAZ  | 
g4 g8 a4 a8 a6g2  | 
w:  Ha ber  *  kün  an   | 
g4 f4 e4 d4 f2e2 d2^c2 d8  | c4 f8 e4 d6c2 d4 e4  | \
w:  ta bîb_ *  *  i  *  *  *  â  |  şı kân  | 
f8 e2f2 g2f2 f12 z4  | 
w:  râ    | 
e4 f8 f2e2 e6d2 d6c2  | c4 c8 c2B2 B6A2 A8  | \
w:  Ki  tâ  *  *  şer *  bet   |  de hed  *  *  bî *  mâr_  | 
G4 A2B2 A4 G4 F6G2 A6G2  | 
w:  ı  mâ  | 
G4 F4 E2F2 GAGF F8 g8  | z4 f8 g4 _7/8a6g2 g4 f4  | \
w:  râ   *  *  *  *  *  *  *  *  SAZ  |  Derd_ i  Şem *  süd  | 
e4 e2f2 e4 _3/4d4 dcde d2c2 c8  | 
w:  *  dîn  *  *  bü ved  *  *  *  *  *  ser  | 
c4 c8 f4 e2_3/4d4c2 c8  | c4 d2e2 d4 e4 f14z2  | \
w:  *  mâ ye  i  *  *  der  |  *  mân_ *  *  ı  mâ    | 
z4 f8 f2e2 e2d2 c2d2 e8  | 
w:  Bî ser_ *  ü  *  *  *  sâ  | 
e4 d8 d2c2 c2B2 A2B2 c8  | c4 B8 B2A2 A6G2 A2G2 F4  | \
w:  *  mâ nî  *  i  *  *  *  ış  |  *  kest  bü *  ved  *  sâ  | 
F4 G4 A4 G2F2 F8 g8  | 
w:  *  mân_ *  ı  *  mâ   SAZ  | 
z4 f8 g4 _7/8a6g2 g4 f4  | e4 e2f2 e4 _3/4d4 dcde d2c2 c8  | \
w:  An  ha yâl_ *  i   |  *  can *  *  fe zâ  *  *  *  *  *  vü   | 
z4 c8 f4 e2_3/4d4c2 c8  | 
w:  bah tı  sâz_ *  *  ı   | 
z4 d2e2 d4 e4 f12 z4  | z4 f8 f2e2 e2d2 c2d2 e8  | \
w:  bî *  *  na zîr    |  Hem  e *  mîr_ *  *  *  i   | 
z4 d8 d2c2 c2B2 A2B2 c8  | 
w:  mec lis_ *  ü  *  *  *  hem   | 
z4 B8 B2A2 A6G2 A2G2 F4  | F4 G4 A4 G2F2 F8 c8  | \
w:  sâ kî  *  i  *  ger  |  *  dân_ *  ı  *  mâ   SAZ  | 
A6_1/4B2 c8 e2_3/4d2 d2c2 c6B2  | 
w:  Ey  *  cân_ ı  *  ci *  hân   | 
A4 A2_1/4B2 A4 B4 c12 z4  | c8 d4 e4 f12 z4  | \
w:  cân_ *  *  ı  ci hân   |  bâ kî  *  nist    | 
f6e2 e6d2 d4 d2c2 c6d2  | 
w:  Cüz  *  ışk_ *  ı  ka *  dîm_  | 
c4 B8 B2A2 A8 ^G4 A4  | B6A2 ^G2A2 BcBA A6_1/4B2 c8  | \
w:  ü  sa hid_ *  ü   |  sâ *  kî  *  *  *  *  *  nist    | 
A6_1/4B2 c8 e2_3/4d2 d2c2 c6B2  | 
w:  Ber  *  Kâ be  *  i  *  nîs  | 
A4 A2_1/4B2 A4 B4 c16  | c8 d4 e4 f12 z4  | \
w:  *  tî  *  *  ta vâ  |  fî  dâ *  red    | 
f6e2 e6d2 d4 d2c2 c6d2  | c4 B8 B2A2 A6G2 A3G F4  | 
w:  Â *  şık  *  ki  zi  *  Kâ  |  be  ez  tü  *  â  | 
G4 A2G2 G2F2 F2E2 F6G2 A8  | z4 A2G2 F4 G4 A8 A2B2 A2B2  | \
w:  fâ *  *  kî  *  *  *  nist    |  Hey  *  *  *  hey  râ  | 
A2G2 A2G2 F4 G4 A12 z4  | 
w:  *  *  nâ  *  *  ı  men    | 
z4 A8 _1/4B4 c4 _3/4d4 d4 c4  | c4 c2_1/4B2 A4 B4 c12 z4  | \
w:  Hey  *  hey  *  zi  |  *  ba  *  *  yı  men    | 
z4 c2_3/4d2 c4 d4 e4 f4 g4 a4  | 
w:  Cân_ *  *  ı  men  *  câ  | 
g2f2 f4 e4 e2d2 dcde d2c2 c4 B4  | \
w:  *  *  nân_ *  ı  *  men   | 
A4 A4 B4 d4 c6B2 A6G2  | 
w:  *  hey  *  *  hey  *  mak  | 
F4 G4 A4 G2F2 F12 z4  | |


